_includes/icons/ios-page-properties-report.svg

<svg fill="#666" height="50" viewBox="0 0 50 50" width="50" xmlns="http://www.w3.org/2000/svg"><path d="m7 7c-1.6449698 0-3 1.3550302-3 3v30c0 1.64497 1.3550302 3 3 3h36c1.64497 0 3-1.35503 3-3v-30c0-1.6449698-1.35503-3-3-3zm0 2h36c.56503 0 1 .4349698 1 1v3h-38v-3c0-.5650302.4349698-1 1-1zm1 1a1 1 0 0 0 -1 1 1 1 0 0 0 1 1 1 1 0 0 0 1-1 1 1 0 0 0 -1-1zm3 0a1 1 0 0 0 -1 1 1 1 0 0 0 1 1 1 1 0 0 0 1-1 1 1 0 0 0 -1-1zm3 0a1 1 0 0 0 -1 1 1 1 0 0 0 1 1 1 1 0 0 0 1-1 1 1 0 0 0 -1-1zm-8 5h38v25c0 .56503-.43497 1-1 1h-36c-.5650302 0-1-.43497-1-1z"/></svg>

<svg xmlns="http://www.w3.org/2000/svg" viewBox="0 0 50 50" width="50" height="50" fill="#666"><path style="line-height:normal;text-indent:0;text-align:start;text-decoration-line:none;text-decoration-style:solid;text-decoration-color:#000;text-transform:none;block-progression:tb;isolation:auto;mix-blend-mode:normal" d="M 7 7 C 5.3550302 7 4 8.3550302 4 10 L 4 40 C 4 41.64497 5.3550302 43 7 43 L 43 43 C 44.64497 43 46 41.64497 46 40 L 46 10 C 46 8.3550302 44.64497 7 43 7 L 7 7 z M 7 9 L 43 9 C 43.56503 9 44 9.4349698 44 10 L 44 13 L 6 13 L 6 10 C 6 9.4349698 6.4349698 9 7 9 z M 8 10 A 1 1 0 0 0 7 11 A 1 1 0 0 0 8 12 A 1 1 0 0 0 9 11 A 1 1 0 0 0 8 10 z M 11 10 A 1 1 0 0 0 10 11 A 1 1 0 0 0 11 12 A 1 1 0 0 0 12 11 A 1 1 0 0 0 11 10 z M 14 10 A 1 1 0 0 0 13 11 A 1 1 0 0 0 14 12 A 1 1 0 0 0 15 11 A 1 1 0 0 0 14 10 z M 6 15 L 44 15 L 44 40 C 44 40.56503 43.56503 41 43 41 L 7 41 C 6.4349698 41 6 40.56503 6 40 L 6 15 z"/></svg>
